icons/line/scroll.svg

<svg width="24" height="24" viewBox="0 0 24 24" fill="none" xmlns="http://www.w3.org/2000/svg">
<path d="M15 20C11.8 20 11 17.3333 11 16H3V18C3 19.1046 3.89543 20 5 20H15ZM15 20C16.6569 20 18 18.6569 18 17V10M18 4H7C5.89543 4 5 4.89543 5 6V16M18 4H19C20.1046 4 21 4.89543 21 6V8C21 9.10457 20.1046 10 19 10H18M18 4V10" stroke="currentColor" stroke-width="2" stroke-linecap="round" stroke-linejoin="round"/>
</svg>

<svg width="24" height="24" fill="none" xmlns="http://www.w3.org/2000/svg"><path d="M15 20c-3.2 0-4-2.667-4-4H3v2a2 2 0 002 2h10zm0 0a3 3 0 003-3v-7m0-6H7a2 2 0 00-2 2v10M18 4h1a2 2 0 012 2v2a2 2 0 01-2 2h-1m0-6v6" stroke="currentColor" stroke-width="2" stroke-linecap="round" stroke-linejoin="round"/></svg>
